X:5525
T:Return to Camden Town
T:Return from Camden Town
O:england
R:reel
D:Skylark: Raining Bicycles
M:C|
K:Ador
E2DG EA,~A,2|EDCD EGAB|cBcd edeg|aged cABG|
E2DG EA,~A,2|EDCD EGAB|cBcd edeg|1 aged cA~A2:|2 aged cAAB||
|:c2ec gcec|c2ec dcAB|cBcd edeg|aged cAAB|
c2ec gcec|c2ec dcAB|cBcd edeg|1 aged cAAB:|2 aged cA~A2||
"Variations:"
E2DE CA,~A,2|EDCD EGAB|cBcd edeg|aged cABG|
E2DE CA,~A,2|EDCD EGAB|cBcd edeg|1 aged cA~A2:|2 aged cAAB||
|:c2gc acgc|c2gc BAGB|cBcd edeg|aged cAAB|
c2gc acgc|c2gc BAGB|~A3B cdeg|aged cA~A2:|


